Obsidian-SemiLight/actions/22s/labplot-5x-zoom.svg

<svg viewBox="0 0 22 22" xmlns="http://www.w3.org/2000/svg"><path d="m16.143119 13.381302c.927125 0 1.65587.232794 2.186235.698381.534413.465587.801619 1.103238.801619 1.912955 0 .923077-.293522 1.647773-.880566 2.174089-.587045.522267-1.40081.783401-2.441296.783401-.991903 0-1.759109-.159919-2.30162-.479757v-1.032389c.299595.178138.659919.319838 1.080972.425101s.831984.157895 1.232794.157895c.696356 0 1.234817-.165992 1.615384-.497976.380567-.331983.570851-.805667.570851-1.421052 0-1.198381-.740891-1.797571-2.222673-1.797571-.477733 0-.983805.06073-1.518218.182186l-.546559-.346154.279958-4.140411 4.505467-.0498722v1.0498722h-3.505467l-.223278 2.520978c.465587-.09312.921053-.139676 1.366397-.139676z" fill="#3daee9"/><path d="m3 3v2h1v-1h1v-1zm5 0v1h2v-1zm4 0v1h2v-1zm5 0v1h1v1h1v-2zm-8 4v1h2.292969l-3.292969 3.292969.707031.707031 3.292969-3.2929688v2.2929688h1v-4h-1zm-6 1v2h1v-2zm0 5v6h6v-6zm1 1h4v4h-4z" fill="#4d4d4d"/></svg>

<svg xmlns="http://www.w3.org/2000/svg" viewBox="0 0 22 22">
  <defs id="defs3051">
    <style type="text/css" id="current-color-scheme">
      .ColorScheme-Text {
        color:#4d4d4d;
      }
      .ColorScheme-Highlight {
        color:#3daee9;
      }
      </style>
  </defs>
 <path 
     style="fill:currentColor;fill-opacity:1;stroke:none" 
     d="m 16.143119,13.381302 c 0.927125,0 1.65587,0.232794 2.186235,0.698381 0.534413,0.465587 0.801619,1.103238 0.801619,1.912955 0,0.923077 -0.293522,1.647773 -0.880566,2.174089 -0.587045,0.522267 -1.40081,0.783401 -2.441296,0.783401 -0.991903,0 -1.759109,-0.159919 -2.30162,-0.479757 l 0,-1.032389 c 0.299595,0.178138 0.659919,0.319838 1.080972,0.425101 0.421053,0.105263 0.831984,0.157895 1.232794,0.157895 0.696356,0 1.234817,-0.165992 1.615384,-0.497976 0.380567,-0.331983 0.570851,-0.805667 0.570851,-1.421052 0,-1.198381 -0.740891,-1.797571 -2.222673,-1.797571 -0.477733,0 -0.983805,0.06073 -1.518218,0.182186 L 13.720042,14.140411 14,10 18.505467,9.9501278 18.505467,11 15,11 14.776722,13.520978 c 0.465587,-0.09312 0.921053,-0.139676 1.366397,-0.139676 z"
     class="ColorScheme-Highlight"
     />
 <path 
     style="fill:currentColor;fill-opacity:1;stroke:none" 
     d="M 3,3 3,5 4,5 4,4 5,4 5,3 3,3 Z m 5,0 0,1 2,0 0,-1 -2,0 z m 4,0 0,1 2,0 0,-1 -2,0 z m 5,0 0,1 1,0 0,1 1,0 0,-2 -2,0 z M 9,7 9,8 11.292969,8 8,11.292969 8.707031,12 12,8.7070312 12,11 13,11 13,7 12,7 9,7 Z M 3,8 3,10 4,10 4,8 3,8 Z m 0,5 0,6 6,0 0,-6 -6,0 z m 1,1 4,0 0,4 -4,0 0,-4 z"
     class="ColorScheme-Text"
     />
</svg>
